;FLAVOR:RepRap
;TIME:2526
;Filament used: 2.96383m
;Layer height: 0.4
;Generated with Cura_SteamEngine 2.5.0-BETA
M104 S220
M109 S220
G28 ; Home to top 3 endstops
G29 Z0.63
;LAYER_COUNT:213
;LAYER:0
M107
G0 F4500 X1.185 Y-4.849 Z0.3
G0 X1.395 Y-4.796
;TYPE:SKIRT
G1 F750 X2.05 Y-4.555 E0.03404
G1 X2.209 Y-4.481 E0.04259
G1 X2.812 Y-4.129 E0.07664
G1 X2.955 Y-4.028 E0.08518
G1 X3.486 Y-3.578 E0.11912
G1 X3.608 Y-3.454 E0.12761
G1 X4.053 Y-2.919 E0.16155
G1 X4.152 Y-2.776 E0.17003
G1 X4.499 Y-2.169 E0.20413
G1 X4.572 Y-2.011 E0.21261
G1 X4.807 Y-1.357 E0.24651
G1 X4.851 Y-1.19 E0.25493
G1 X4.97 Y-.503 E0.28893
G1 X4.984 Y-.285 E0.29959
G1 X4.935 Y0.759 E0.35056
G1 X4.901 Y0.975 E0.36122
G1 X4.718 Y1.646 E0.39514
G1 X4.657 Y1.811 E0.40372
G1 X4.359 Y2.441 E0.43771
G1 X4.272 Y2.59 E0.44612
G1 X3.87 Y3.159 E0.4801
G1 X3.758 Y3.291 E0.48854
G1 X3.264 Y3.782 E0.52251
G1 X3.129 Y3.894 E0.53106
G1 X2.556 Y4.292 E0.56509
G1 X2.405 Y4.379 E0.57359
G1 X1.772 Y4.671 E0.60758
G1 X1.607 Y4.73 E0.61613
G1 X0.93 Y4.908 E0.65027
G1 X0.759 Y4.938 E0.65874
G1 X0.066 Y4.996 E0.69265
G1 X-.152 Y4.99 E0.70329
G1 X-1.185 Y4.849 E0.75413
G1 X-1.395 Y4.796 E0.76469
G1 X-2.05 Y4.555 E0.79873
G1 X-2.209 Y4.481 E0.80729
G1 X-2.812 Y4.129 E0.84134
G1 X-2.955 Y4.028 E0.84987
G1 X-3.486 Y3.578 E0.88382
G1 X-3.608 Y3.455 E0.89227
G1 X-4.054 Y2.919 E0.92627
G1 X-4.153 Y2.775 E0.9348
G1 X-4.499 Y2.169 E0.96883
G1 X-4.572 Y2.011 E0.97732
G1 X-4.807 Y1.357 E1.01121
G1 X-4.851 Y1.189 E1.01968
G1 X-4.97 Y0.5 E1.05378
G1 X-4.984 Y0.283 E1.06438
G1 X-4.935 Y-.759 E1.11526
G1 X-4.901 Y-.975 E1.12592
G1 X-4.718 Y-1.646 E1.15984
G1 X-4.657 Y-1.811 E1.16842
G1 X-4.359 Y-2.441 E1.20241
G1 X-4.272 Y-2.59 E1.21082
G1 X-3.87 Y-3.159 E1.2448
G1 X-3.758 Y-3.291 E1.25324
G1 X-3.264 Y-3.782 E1.28721
G1 X-3.129 Y-3.894 E1.29576
G1 X-2.556 Y-4.292 E1.32979
G1 X-2.405 Y-4.379 E1.33829
G1 X-1.772 Y-4.671 E1.37228
G1 X-1.607 Y-4.73 E1.38083
G1 X-.93 Y-4.908 E1.41497
G1 X-.759 Y-4.938 E1.42344
G1 X-0.066 Y-4.996 E1.45735
G1 X0.152 Y-4.99 E1.46799
G1 X1.185 Y-4.849 E1.51883
G1 X1.395 Y-4.796 E1.52939
G0 F4500 X1.131 Y-4.452
G1 F750 X1.257 Y-4.421 E1.53572
G1 X1.912 Y-4.18 E1.56976
G1 X2.007 Y-4.135 E1.57489
G1 X2.61 Y-3.783 E1.60894
G1 X2.696 Y-3.723 E1.61405
G1 X3.227 Y-3.273 E1.648
G1 X3.3 Y-3.199 E1.65307
G1 X3.745 Y-2.664 E1.687
G1 X3.805 Y-2.578 E1.69212
G1 X4.152 Y-1.971 E1.72622
G1 X4.196 Y-1.876 E1.73132
G1 X4.431 Y-1.222 E1.76521
G1 X4.457 Y-1.121 E1.7703
G1 X4.576 Y-.434 E1.8043
G1 X4.584 Y-.304 E1.81066
G1 X4.535 Y0.74 E1.86163
G1 X4.515 Y0.87 E1.86804
G1 X4.332 Y1.541 E1.90196
G1 X4.295 Y1.64 E1.90711
G1 X3.997 Y2.27 E1.9411
G1 X3.945 Y2.359 E1.94613
G1 X3.543 Y2.928 E1.98011
G1 X3.476 Y3.008 E1.9852
G1 X2.982 Y3.499 E2.01916
G1 X2.901 Y3.566 E2.02429
G1 X2.328 Y3.964 E2.05831
G1 X2.237 Y4.016 E2.06343
G1 X1.604 Y4.308 E2.09742
G1 X1.506 Y4.343 E2.1025
G1 X0.829 Y4.521 E2.13664
G1 X0.726 Y4.539 E2.14174
G1 X0.033 Y4.597 E2.17565
G1 X-0.098 Y4.593 E2.18204
G1 X-1.131 Y4.452 E2.23289
G1 X-1.257 Y4.421 E2.23922
G1 X-1.912 Y4.18 E2.27325
G1 X-2.007 Y4.135 E2.27838
G1 X-2.61 Y3.783 E2.31243
G1 X-2.696 Y3.723 E2.31755
G1 X-3.227 Y3.273 E2.35149
G1 X-3.3 Y3.199 E2.35656
G1 X-3.746 Y2.663 E2.39057
G1 X-3.806 Y2.576 E2.39572
G1 X-4.152 Y1.97 E2.42975
G1 X-4.196 Y1.876 E2.43481
G1 X-4.431 Y1.222 E2.46871
G1 X-4.457 Y1.121 E2.47379
G1 X-4.576 Y0.432 E2.50789
G1 X-4.584 Y0.302 E2.51424
G1 X-4.535 Y-.74 E2.56512
G1 X-4.515 Y-.87 E2.57153
G1 X-4.332 Y-1.541 E2.60545
G1 X-4.295 Y-1.64 E2.61061
G1 X-3.997 Y-2.27 E2.64459
G1 X-3.945 Y-2.359 E2.64962
G1 X-3.543 Y-2.928 E2.6836
G1 X-3.476 Y-3.008 E2.68869
G1 X-2.982 Y-3.499 E2.72265
G1 X-2.901 Y-3.566 E2.72778
G1 X-2.328 Y-3.964 E2.76181
G1 X-2.237 Y-4.016 E2.76692
G1 X-1.604 Y-4.308 E2.80091
G1 X-1.506 Y-4.343 E2.80599
G1 X-.829 Y-4.521 E2.84013
G1 X-.726 Y-4.539 E2.84523
G1 X-0.033 Y-4.597 E2.87914
G1 X0.098 Y-4.593 E2.88553
G1 X1.131 Y-4.452 E2.93638
G0 F4500 X1.077 Y-4.056
G1 F750 X1.119 Y-4.046 E2.93849
G1 X1.774 Y-3.805 E2.97252
G1 X1.806 Y-3.79 E2.97425
G1 X2.409 Y-3.438 E3.0083
G1 X2.437 Y-3.418 E3.00998
G1 X2.968 Y-2.968 E3.04392
G1 X2.993 Y-2.943 E3.04565
G1 X3.438 Y-2.408 E3.07958
G1 X3.458 Y-2.379 E3.0813
G1 X3.805 Y-1.772 E3.1154
G1 X3.819 Y-1.741 E3.11706
G1 X4.054 Y-1.087 E3.15095
G1 X4.063 Y-1.053 E3.15267
G1 X4.182 Y-.366 E3.18667
G1 X4.185 Y-.323 E3.18877
G1 X4.136 Y0.721 E3.23974
G1 X4.129 Y0.765 E3.24191
G1 X3.946 Y1.436 E3.27583
G1 X3.934 Y1.469 E3.27755
G1 X3.636 Y2.099 E3.31153
G1 X3.618 Y2.128 E3.3132
G1 X3.216 Y2.697 E3.34718
G1 X3.194 Y2.724 E3.34887
G1 X2.7 Y3.215 E3.38284
G1 X2.673 Y3.237 E3.38454
G1 X2.1 Y3.635 E3.41857
G1 X2.07 Y3.653 E3.42027
G1 X1.437 Y3.945 E3.45427
G1 X1.404 Y3.956 E3.45596
G1 X0.727 Y4.134 E3.4901
G1 X0.693 Y4.14 E3.49179
G1 X0.00 Y4.198 E3.5257
G1 X-0.044 Y4.197 E3.52785
G1 X-1.077 Y4.056 E3.57869
G1 X-1.119 Y4.046 E3.5808
G1 X-1.774 Y3.805 E3.61484
G1 X-1.806 Y3.79 E3.61656
G1 X-2.409 Y3.438 E3.65061
G1 X-2.437 Y3.418 E3.65229
G1 X-2.968 Y2.968 E3.68624
G1 X-2.993 Y2.943 E3.68796
G1 X-3.439 Y2.407 E3.72197
G1 X-3.459 Y2.378 E3.72368
G1 X-3.805 Y1.772 E3.75772
G1 X-3.819 Y1.741 E3.75938
G1 X-4.054 Y1.087 E3.79327
G1 X-4.063 Y1.053 E3.79498
G1 X-4.182 Y0.364 E3.82908
G1 X-4.185 Y0.321 E3.83118
G1 X-4.136 Y-.721 E3.88206
G1 X-4.129 Y-.765 E3.88423
G1 X-3.946 Y-1.436 E3.91815
G1 X-3.934 Y-1.469 E3.91986
G1 X-3.636 Y-2.099 E3.95385
G1 X-3.618 Y-2.128 E3.95551
G1 X-3.216 Y-2.697 E3.98949
G1 X-3.194 Y-2.724 E3.99119
G1 X-2.7 Y-3.215 E4.02516
G1 X-2.673 Y-3.237 E4.02686
G1 X-2.1 Y-3.635 E4.06088
G1 X-2.07 Y-3.653 E4.06259
G1 X-1.437 Y-3.945 E4.09658
G1 X-1.404 Y-3.956 E4.09828
G1 X-.727 Y-4.134 E4.13242
G1 X-.693 Y-4.14 E4.1341
G1 X0.00 Y-4.198 E4.16802
G1 X0.044 Y-4.197 E4.17016
G1 X1.077 Y-4.056 E4.22101
G0 F4500 X1.179 Y-4.511
G0 X3.665 Y-13.768
G1 F750 X2.458 Y-14.034 E4.28129
G1 X1.215 Y-14.195 E4.34241
G1 X-0.021 Y-14.248 E4.40275
G1 X-1.267 Y-14.191 E4.46358
G1 X-2.488 Y-14.029 E4.52365
G1 X-3.716 Y-13.754 E4.58502
G1 X-4.889 Y-13.383 E4.64502
G1 X-6.043 Y-12.902 E4.70599
G1 X-7.139 Y-12.329 E4.7663
G1 X-8.188 Y-11.66 E4.82698
G1 X-9.182 Y-10.893 E4.88821
G1 X-10.088 Y-10.061 E4.9482
G1 X-10.924 Y-9.146 E5.00865
G1 X-11.682 Y-8.156 E5.06945
G1 X-12.347 Y-7.108 E5.12999
G1 X-12.923 Y-5.997 E5.19102
G1 X-13.399 Y-4.846 E5.25176
G1 X-13.767 Y-3.668 E5.31195
G1 X-14.034 Y-2.458 E5.37238
G1 X-14.195 Y-1.215 E5.43351
G1 X-14.248 Y0.021 E5.49384
G1 X-14.191 Y1.267 E5.55467
G1 X-14.029 Y2.488 E5.61474
G1 X-13.756 Y3.708 E5.67571
G1 X-13.381 Y4.893 E5.73632
G1 X-12.904 Y6.039 E5.79686
G1 X-12.327 Y7.143 E5.85761
G1 X-11.664 Y8.184 E5.9178
G1 X-10.893 Y9.182 E5.97931
G1 X-10.06 Y10.09 E6.0394
G1 X-9.147 Y10.923 E6.09968
G1 X-8.152 Y11.685 E6.1608
G1 X-7.109 Y12.347 E6.22104
G1 X-5.997 Y12.923 E6.28212
G1 X-4.851 Y13.396 E6.34258
G1 X-3.665 Y13.768 E6.4032
G1 X-2.458 Y14.034 E6.46348
G1 X-1.215 Y14.195 E6.5246
G1 X0.021 Y14.248 E6.58494
G1 X1.267 Y14.191 E6.64577
G1 X2.488 Y14.029 E6.70584
G1 X3.716 Y13.754 E6.76721
G1 X4.89 Y13.382 E6.82727
G1 X6.043 Y12.902 E6.88818
G1 X7.141 Y12.328 E6.9486
G1 X8.189 Y11.659 E7.00924
G1 X9.182 Y10.893 E7.0704
G1 X10.09 Y10.06 E7.13049
G1 X10.924 Y9.146 E7.19084
G1 X11.684 Y8.154 E7.25178
G1 X12.349 Y7.104 E7.3124
G1 X12.923 Y5.997 E7.37321
G1 X13.399 Y4.846 E7.43395
G1 X13.767 Y3.668 E7.49414
G1 X14.035 Y2.452 E7.55487
G1 X14.195 Y1.215 E7.6157
G1 X14.248 Y-0.026 E7.67627
G1 X14.191 Y-1.268 E7.73691
G1 X14.029 Y-2.491 E7.79708
G1 X13.754 Y-3.716 E7.8583
G1 X13.382 Y-4.89 E7.91836
G1 X12.902 Y-6.043 E7.97927
G1 X12.327 Y-7.143 E8.03981
G1 X11.658 Y-8.191 E8.10044
G1 X10.893 Y-9.182 E8.1615
G1 X10.058 Y-10.091 E8.22169
G1 X9.146 Y-10.924 E8.28193
G1 X8.152 Y-11.685 E8.34298
G1 X7.107 Y-12.348 E8.40334
G1 X5.997 Y-12.923 E8.4643
G1 X4.851 Y-13.396 E8.52477
G1 X3.665 Y-13.768 E8.58539
G0 F4500 X3.766 Y-14.154
G1 F750 X2.52 Y-14.43 E8.64763
G1 X1.248 Y-14.594 E8.71017
G1 X-0.022 Y-14.649 E8.77217
G1 X-1.291 Y-14.59 E8.83412
G1 X-2.574 Y-14.42 E8.89724
G1 X-3.809 Y-14.144 E8.95896
G1 X-5.029 Y-13.758 E9.02136
G1 X-6.209 Y-13.266 E9.08371
G1 X-7.344 Y-12.672 E9.14619
G1 X-8.422 Y-11.985 E9.20853
G1 X-9.432 Y-11.206 E9.27073
G1 X-10.373 Y-10.341 E9.33307
G1 X-11.238 Y-9.394 E9.39562
G1 X-12.009 Y-8.387 E9.45747
G1 X-12.695 Y-7.305 E9.51995
G1 X-13.284 Y-6.17 E9.58231
G1 X-13.773 Y-4.986 E9.64479
G1 X-14.154 Y-3.766 E9.70712
G1 X-14.43 Y-2.52 E9.76936
G1 X-14.594 Y-1.248 E9.83191
G1 X-14.649 Y0.023 E9.89395
G1 X-14.59 Y1.291 E9.95586
G1 X-14.42 Y2.574 E10.01897
G1 X-14.144 Y3.809 E10.08069
G1 X-13.759 Y5.027 E10.14299
G1 X-13.266 Y6.209 E10.20545
G1 X-12.67 Y7.348 E10.26814
G1 X-11.99 Y8.416 E10.32989
G1 X-11.206 Y9.432 E10.39247
G1 X-10.341 Y10.373 E10.45481
G1 X-9.395 Y11.237 E10.51729
G1 X-8.386 Y12.01 E10.57928
G1 X-7.307 Y12.694 E10.64158
G1 X-6.17 Y13.284 E10.70405
G1 X-4.988 Y13.772 E10.76642
G1 X-3.766 Y14.154 E10.82886
G1 X-2.52 Y14.43 E10.8911
G1 X-1.248 Y14.594 E10.95364
G1 X0.022 Y14.649 E11.01564
G1 X1.291 Y14.59 E11.07759
G1 X2.574 Y14.42 E11.14071
G1 X3.809 Y14.144 E11.20243
G1 X5.029 Y13.758 E11.26483
G1 X6.209 Y13.266 E11.32718
G1 X7.344 Y12.672 E11.38966
G1 X8.422 Y11.985 E11.452
G1 X9.432 Y11.206 E11.51421
G1 X10.373 Y10.341 E11.57654
G1 X11.238 Y9.394 E11.63909
G1 X12.011 Y8.385 E11.70108
G1 X12.695 Y7.305 E11.76342
G1 X13.284 Y6.17 E11.82579
G1 X13.773 Y4.986 E11.88826
G1 X14.154 Y3.766 E11.95059
G1 X14.43 Y2.52 E12.01283
G1 X14.594 Y1.248 E12.07538
G1 X14.649 Y-0.025 E12.13752
G1 X14.59 Y-1.293 E12.19943
G1 X14.42 Y-2.578 E12.26264
G1 X14.144 Y-3.808 E12.32412
G1 X13.758 Y-5.029 E12.38657
G1 X13.266 Y-6.209 E12.44892
G1 X12.672 Y-7.344 E12.5114
G1 X11.985 Y-8.422 E12.57374
G1 X11.206 Y-9.432 E12.63594
G1 X10.341 Y-10.373 E12.69828
G1 X9.401 Y-11.232 E12.76038
G1 X8.378 Y-12.015 E12.82321
G1 X7.305 Y-12.695 E12.88516
G1 X6.17 Y-13.284 E12.94752
G1 X4.988 Y-13.772 E13.00989
G1 X3.766 Y-14.154 E13.07233
G0 F4500 X3.867 Y-14.542
G1 F750 X2.59 Y-14.824 E13.13611
G1 X1.293 Y-14.992 E13.19989
G1 X-0.024 Y-15.049 E13.26418
G1 X-1.339 Y-14.988 E13.32838
G1 X-2.634 Y-14.816 E13.39209
G1 X-3.915 Y-14.53 E13.4561
G1 X-5.167 Y-14.133 E13.52015
G1 X-6.384 Y-13.626 E13.58445
G1 X-7.538 Y-13.023 E13.64795
G1 X-8.659 Y-12.308 E13.71279
G1 X-9.69 Y-11.513 E13.77629
G1 X-10.651 Y-10.63 E13.83993
G1 X-11.542 Y-9.655 E13.90435
G1 X-12.346 Y-8.604 E13.96888
G1 X-13.041 Y-7.507 E14.03222
G1 X-13.652 Y-6.329 E14.09693
G1 X-14.149 Y-5.125 E14.16046
G1 X-14.543 Y-3.864 E14.22489
G1 X-14.824 Y-2.59 E14.28851
G1 X-14.992 Y-1.295 E14.3522
G1 X-15.049 Y0.025 E14.41663
G1 X-14.988 Y1.339 E14.48078
G1 X-14.816 Y2.634 E14.54449
G1 X-14.531 Y3.91 E14.60826
G1 X-14.134 Y5.165 E14.67245
G1 X-13.626 Y6.384 E14.73686
G1 X-13.02 Y7.543 E14.80064
G1 X-12.312 Y8.655 E14.86493
G1 X-11.513 Y9.69 E14.9287
G1 X-10.63 Y10.651 E14.99235
G1 X-9.656 Y11.541 E15.05669
G1 X-8.609 Y12.342 E15.12098
G1 X-7.509 Y13.04 E15.18452
G1 X-6.333 Y13.65 E15.24912
G1 X-5.127 Y14.148 E15.31276
G1 X-3.867 Y14.542 E15.37714
G1 X-2.59 Y14.824 E15.44092
G1 X-1.293 Y14.992 E15.5047
G1 X0.024 Y15.049 E15.56899
G1 X1.339 Y14.988 E15.63319
G1 X2.634 Y14.816 E15.6969
G1 X3.915 Y14.53 E15.76091
G1 X5.167 Y14.133 E15.82497
G1 X6.384 Y13.626 E15.88926
G1 X7.539 Y13.022 E15.95283
G1 X8.659 Y12.308 E16.01761
G1 X9.69 Y11.513 E16.0811
G1 X10.651 Y10.63 E16.14475
G1 X11.542 Y9.655 E16.20916
G1 X12.346 Y8.604 E16.2737
G1 X13.041 Y7.507 E16.33703
G1 X13.652 Y6.329 E16.40175
G1 X14.149 Y5.125 E16.46527
G1 X14.543 Y3.864 E16.5297
G1 X14.824 Y2.59 E16.59333
G1 X14.992 Y1.293 E16.65711
G1 X15.049 Y-0.025 E16.72144
G1 X14.988 Y-1.344 E16.78584
G1 X14.817 Y-2.635 E16.84935
G1 X14.531 Y-3.91 E16.91308
G1 X14.133 Y-5.167 E16.97738
G1 X13.625 Y-6.387 E17.04183
G1 X13.023 Y-7.538 E17.10518
G1 X12.308 Y-8.659 E17.17002
G1 X11.513 Y-9.69 E17.23351
G1 X10.63 Y-10.651 E17.29716
G1 X9.655 Y-11.542 E17.36158
G1 X8.609 Y-12.342 E17.4258
G1 X7.507 Y-13.041 E17.48944
G1 X6.333 Y-13.65 E17.55394
G1 X5.127 Y-14.148 E17.61757
G1 X3.867 Y-14.542 E17.68196
G1 Z0.8
G0 F4500 X4.266 Y-15.885 Z0.8
G1 Z0.3
G1 F750 X4.282 Y-15.881 E17.70635
G1 X5.633 Y-15.455 E17.77544
G1 X5.65 Y-15.449 E17.77632
G1 X6.958 Y-14.904 E17.84542
G1 X6.974 Y-14.896 E17.8463
G1 X8.231 Y-14.24 E17.91545
G1 X8.246 Y-14.232 E17.91627
G1 X9.441 Y-13.469 E17.98542
G1 X9.455 Y-13.459 E17.98626
G1 X10.578 Y-12.596 E18.05533
G1 X10.591 Y-12.584 E18.05619
G1 X11.635 Y-11.625 E18.12533
G1 X11.648 Y-11.613 E18.12619
G1 X12.606 Y-10.566 E18.1954
G1 X12.617 Y-10.553 E18.19623
G1 X13.478 Y-9.428 E18.26532
G1 X13.488 Y-9.413 E18.2662
G1 X14.248 Y-8.218 E18.33527
G1 X14.257 Y-8.203 E18.33612
G1 X14.911 Y-6.943 E18.40535
G1 X14.918 Y-6.928 E18.40616
G1 X15.46 Y-5.619 E18.47526
G1 X15.466 Y-5.602 E18.47614
G1 X15.89 Y-4.25 E18.54524
G1 X15.894 Y-4.233 E18.54609
G1 X16.2 Y-2.847 E18.61531
G1 X16.203 Y-2.83 E18.61615
G1 X16.387 Y-1.426 E18.68521
G1 X16.389 Y-1.408 E18.68609
G1 X16.449 Y0.008 E18.75521
G1 X16.449 Y0.025 E18.75604
G1 X16.386 Y1.441 E18.82517
G1 X16.384 Y1.458 E18.826
G1 X16.197 Y2.862 E18.89508
G1 X16.194 Y2.88 E18.89597
G1 X15.885 Y4.266 E18.96522
G1 X15.881 Y4.282 E18.96603
G1 X15.456 Y5.631 E19.035
G1 X15.45 Y5.648 E19.03588
G1 X14.904 Y6.958 E19.1051
G1 X14.896 Y6.974 E19.10597
G1 X14.24 Y8.231 E19.17512
G1 X14.232 Y8.246 E19.17595
G1 X13.47 Y9.44 E19.24503
G1 X13.46 Y9.454 E19.24587
G1 X12.596 Y10.578 E19.31501
G1 X12.584 Y10.591 E19.31587
G1 X11.625 Y11.635 E19.385
G1 X11.613 Y11.648 E19.38587
G1 X10.566 Y12.606 E19.45508
G1 X10.553 Y12.617 E19.45591
G1 X9.428 Y13.478 E19.525
G1 X9.413 Y13.488 E19.52588
G1 X8.218 Y14.248 E19.59494
G1 X8.203 Y14.257 E19.5958
G1 X6.943 Y14.911 E19.66503
G1 X6.928 Y14.918 E19.66584
G1 X5.619 Y15.46 E19.73493
G1 X5.602 Y15.466 E19.73581
G1 X4.25 Y15.89 E19.80491
G1 X4.233 Y15.894 E19.80576
G1 X2.846 Y16.2 E19.87503
G1 X2.829 Y16.203 E19.87588
G1 X1.424 Y16.387 E19.94498
G1 X1.406 Y16.389 E19.94587
G1 X-0.009 Y16.449 E20.01494
G1 X-0.026 Y16.449 E20.01576
G1 X-1.441 Y16.386 E20.08484
G1 X-1.458 Y16.384 E20.08568
G1 X-2.862 Y16.197 E20.15475
G1 X-2.88 Y16.194 E20.15564
G1 X-4.266 Y15.885 E20.2249
G1 X-4.282 Y15.881 E20.2257
G1 X-5.633 Y15.455 E20.29479
G1 X-5.65 Y15.449 E20.29566
G1 X-6.958 Y14.904 E20.36477
G1 X-6.974 Y14.896 E20.36564
G1 X-8.233 Y14.239 E20.4349
G1 X-8.248 Y14.231 E20.43573
G1 X-9.441 Y13.469 E20.50477
G1 X-9.455 Y13.459 E20.50561
G1 X-10.578 Y12.596 E20.57468
G1 X-10.591 Y12.584 E20.57554
G1 X-11.636 Y11.624 E20.64474
G1 X-11.649 Y11.612 E20.64561
G1 X-12.606 Y10.566 E20.71475
G1 X-12.617 Y10.553 E20.71558
G1 X-13.479 Y9.427 E20.78474
G1 X-13.489 Y9.412 E20.78562
G1 X-14.249 Y8.216 E20.85472
G1 X-14.258 Y8.201 E20.85558
G1 X-14.911 Y6.943 E20.9247
G1 X-14.918 Y6.928 E20.92551
G1 X-15.461 Y5.617 E20.99471
G1 X-15.467 Y5.6 E20.99559
G1 X-15.89 Y4.25 E21.06459
G1 X-15.894 Y4.233 E21.06544
G1 X-16.2 Y2.846 E21.13471
G1 X-16.203 Y2.829 E21.13555
G1 X-16.387 Y1.424 E21.20466
G1 X-16.389 Y1.406 E21.20554
G1 X-16.449 Y-0.008 E21.27456
G1 X-16.449 Y-0.025 E21.27539
G1 X-16.386 Y-1.441 E21.34451
G1 X-16.384 Y-1.458 E21.34535
G1 X-16.197 Y-2.862 E21.41443
G1 X-16.194 Y-2.88 E21.41532
G1 X-15.885 Y-4.266 E21.48457
G1 X-15.881 Y-4.282 E21.48537
G1 X-15.456 Y-5.631 E21.55435
G1 X-15.45 Y-5.648 E21.55523
G1 X-14.904 Y-6.958 E21.62444
G1 X-14.896 Y-6.974 E21.62532
G1 X-14.24 Y-8.231 E21.69447
G1 X-14.232 Y-8.246 E21.69529
G1 X-13.47 Y-9.44 E21.76437
G1 X-13.46 Y-9.454 E21.76521
G1 X-12.596 Y-10.578 E21.83435
G1 X-12.584 Y-10.591 E21.83521
G1 X-11.625 Y-11.635 E21.90435
G1 X-11.613 Y-11.648 E21.90521
G1 X-10.566 Y-12.606 E21.97442
G1 X-10.553 Y-12.617 E21.97525
G1 X-9.428 Y-13.478 E22.04434
G1 X-9.413 Y-13.488 E22.04522
G1 X-8.218 Y-14.248 E22.11429
G1 X-8.203 Y-14.257 E22.11514
G1 X-6.943 Y-14.911 E22.18438
G1 X-6.928 Y-14.918 E22.18518
G1 X-5.619 Y-15.46 E22.25428
G1 X-5.602 Y-15.466 E22.25516
G1 X-4.25 Y-15.89 E22.32426
G1 X-4.233 Y-15.894 E22.32511
G1 X-2.846 Y-16.2 E22.39438
G1 X-2.829 Y-16.203 E22.39522
G1 X-1.424 Y-16.387 E22.46433
G1 X-1.406 Y-16.389 E22.46521
G1 X0.009 Y-16.449 E22.53428
