; generated by Slic3r 1.1.7 on 2015-05-16 at 10:27:52

; perimeters extrusion width = 0.50mm
; infill extrusion width = 1.02mm
; solid infill extrusion width = 0.85mm
; top infill extrusion width = 0.85mm

G21 ; set units to millimeters
M107
M104 S200 ; set temperature
G28 ; home all axes
G29 Z0

M109 S200 ; wait for temperature to be reached
G90 ; use absolute coordinates
G92 E0
M82 ; use absolute distances for extrusion
G1 F9000.000 E-6.00000
G92 E0
G1 Z0.200 F7800.000
G1 X-3.617 Y-31.839 F7800.000
G1 E6.00000 F9000.000
G1 X66.514 Y-39.806 E9.03774 F1080.000
G1 X67.134 Y-39.853 E9.06450
G1 X67.931 Y-39.857 E9.09881
G1 X68.552 Y-39.814 E9.12556 F1080.000
G1 X69.341 Y-39.704 E9.15987
G1 X69.949 Y-39.573 E9.18662
G1 X70.714 Y-39.350 E9.22094
G1 X71.297 Y-39.134 E9.24769
G1 X72.023 Y-38.804 E9.28201
G1 X72.568 Y-38.505 E9.30875
G1 X73.239 Y-38.075 E9.34307
G1 X73.736 Y-37.702 E9.36983
G1 X74.338 Y-37.179 E9.40413
G1 X74.995 Y-36.498 E9.44484
G1 X75.298 Y-36.135 E9.46520
G1 X75.669 Y-35.636 E9.49195
G1 X76.098 Y-34.964 E9.52626
G1 X76.326 Y-34.550 E9.54663
G1 X76.595 Y-33.989 E9.57338
G1 X76.888 Y-33.248 E9.60768
G1 X77.132 Y-32.443 E9.64388
G1 X84.311 Y-4.188 E10.89857
G1 X84.526 Y-3.205 E10.94189
G1 X84.684 Y-2.210 E10.98522
G1 X84.784 Y-1.209 E11.02855
G1 X84.825 Y-0.203 E11.07187
G1 X84.808 Y0.803 E11.11519
G1 X84.715 Y1.958 E11.16504
G1 X84.539 Y3.135 E11.21628
G1 X84.328 Y4.119 E11.25959
G1 X77.156 Y32.345 E12.51296
G1 X76.989 Y32.943 E12.53969
G1 X76.721 Y33.694 E12.57402
G1 X76.469 Y34.262 E12.60076
G1 X76.096 Y34.967 E12.63508
G1 X75.766 Y35.494 E12.66184
G1 X75.296 Y36.138 E12.69614
G1 X74.673 Y36.849 E12.73685
G1 X74.227 Y37.282 E12.76360
G1 X73.617 Y37.796 E12.79790
G1 X73.236 Y38.077 E12.81828
G1 X72.437 Y38.582 E12.85898
G1 X71.886 Y38.871 E12.88573
G1 X71.156 Y39.190 E12.92005
G1 X70.259 Y39.491 E12.96076
G1 X69.801 Y39.609 E12.98110
G1 X69.338 Y39.705 E13.00147
G1 X68.723 Y39.796 E13.02821
G1 X67.928 Y39.857 E13.06253
G1 X67.455 Y39.863 E13.08289
G1 X66.630 Y39.819 E13.11847
G1 X-75.595 Y26.097 E19.26796
G1 X-76.892 Y25.822 E19.32504
G1 X-78.167 Y25.383 E19.38306
G1 X-79.343 Y24.813 E19.43930
G1 X-80.459 Y24.095 E19.49641
G1 X-81.480 Y23.248 E19.55351
G1 X-82.403 Y22.269 E19.61141
G1 X-83.181 Y21.215 E19.66779
G1 X-83.836 Y20.062 E19.72488
G1 X-84.351 Y18.822 E19.78267
G1 X-84.706 Y17.560 E19.83908
G1 X-84.909 Y16.248 E19.89621
G1 X-84.962 Y15.224 E19.94036
G1 X-84.953 Y-13.078 E21.15841
G1 X-84.910 Y-13.786 E21.18895
G1 X-84.837 Y-14.399 E21.21552
G1 X-84.709 Y-15.098 E21.24609
G1 X-84.562 Y-15.697 E21.27263
G1 X-84.351 Y-16.375 E21.30322
G1 X-84.133 Y-16.952 E21.32974
G1 X-83.842 Y-17.601 E21.36037
G1 X-83.557 Y-18.146 E21.38686
G1 X-83.189 Y-18.756 E21.41750
G1 X-82.840 Y-19.263 E21.44397
G1 X-82.401 Y-19.824 E21.47464
G1 X-81.994 Y-20.285 E21.50108
G1 X-81.490 Y-20.789 E21.53179
G1 X-81.032 Y-21.197 E21.55819
G1 X-80.470 Y-21.638 E21.58893
G1 X-79.966 Y-21.987 E21.61531
G1 X-79.355 Y-22.357 E21.64605
G1 X-78.813 Y-22.643 E21.67242
G1 X-78.162 Y-22.937 E21.70318
G1 X-77.590 Y-23.156 E21.72953
G1 X-76.907 Y-23.369 E21.76034
G1 X-76.314 Y-23.517 E21.78664
G1 X-75.258 Y-23.699 E21.83274
G1 X-3.692 Y-31.830 E24.93264
G1 X-3.561 Y-31.342 F7800.000
G1 X66.562 Y-39.308 E27.97001 F1080.000
G1 X67.158 Y-39.353 E27.99574
G1 X67.907 Y-39.357 E28.02798
G1 X68.504 Y-39.317 E28.05370 F1080.000
G1 X69.246 Y-39.213 E28.08595
G1 X69.830 Y-39.087 E28.11167
G1 X70.550 Y-38.878 E28.14393
G1 X71.110 Y-38.670 E28.16964
G1 X71.792 Y-38.360 E28.20190
G1 X72.316 Y-38.073 E28.22761
G1 X72.947 Y-37.669 E28.25986
G1 X73.425 Y-37.310 E28.28559
G1 X73.991 Y-36.819 E28.31783
G1 X74.615 Y-36.174 E28.35647
G1 X74.903 Y-35.829 E28.37580
G1 X75.259 Y-35.349 E28.40152
G1 X75.663 Y-34.718 E28.43377
G1 X76.078 Y-33.922 E28.47240
G1 X76.256 Y-33.509 E28.49174
G1 X76.414 Y-33.089 E28.51106
G1 X76.647 Y-32.320 E28.54565
G1 X83.825 Y-4.070 E29.80011
G1 X84.034 Y-3.115 E29.84218
G1 X84.188 Y-2.150 E29.88425
G1 X84.285 Y-1.177 E29.92632
G1 X84.325 Y-0.201 E29.96839
G1 X84.309 Y0.777 E30.01045
G1 X84.218 Y1.902 E30.05904
G1 X84.048 Y3.041 E30.10861
G1 X83.843 Y3.997 E30.15067
G1 X76.671 Y32.220 E31.40395
G1 X76.511 Y32.795 E31.42965
G1 X76.259 Y33.501 E31.46191
G1 X76.018 Y34.048 E31.48763
G1 X75.667 Y34.710 E31.51988
G1 X75.350 Y35.217 E31.54561
G1 X74.908 Y35.822 E31.57785
G1 X74.317 Y36.498 E31.61649
G1 X73.888 Y36.914 E31.64222
G1 X73.316 Y37.397 E31.67445
G1 X72.954 Y37.664 E31.69379
G1 X72.196 Y38.144 E31.73243
G1 X71.666 Y38.422 E31.75815
G1 X70.980 Y38.722 E31.79041
G1 X70.129 Y39.008 E31.82905
G1 X69.694 Y39.120 E31.84836
G1 X69.254 Y39.212 E31.86770
G1 X68.663 Y39.299 E31.89341
G1 X67.916 Y39.357 E31.92567
G1 X67.467 Y39.363 E31.94499
G1 X66.678 Y39.321 E31.97902
G1 X-75.505 Y25.605 E38.12668
G1 X-76.744 Y25.344 E38.18117
G1 X-77.961 Y24.927 E38.23657
G1 X-79.084 Y24.385 E38.29023
G1 X-80.150 Y23.701 E38.34475
G1 X-81.126 Y22.894 E38.39925
G1 X-82.009 Y21.961 E38.45454
G1 X-82.753 Y20.957 E38.50833
G1 X-83.380 Y19.856 E38.56283
G1 X-83.874 Y18.673 E38.61801
G1 X-84.214 Y17.470 E38.67184
G1 X-84.410 Y16.218 E38.72637
G1 X-84.462 Y15.224 E38.76921
G1 X-84.454 Y-13.048 E39.98596
G1 X-84.411 Y-13.756 E40.01651
G1 X-84.345 Y-14.309 E40.04048
G1 X-84.217 Y-15.008 E40.07104
G1 X-84.085 Y-15.548 E40.09500
G1 X-83.874 Y-16.227 E40.12558
G1 X-83.677 Y-16.747 E40.14951
G1 X-83.386 Y-17.396 E40.18013
G1 X-83.129 Y-17.888 E40.20403
G1 X-82.761 Y-18.497 E40.23466
G1 X-82.446 Y-18.955 E40.25854
G1 X-82.007 Y-19.516 E40.28920
G1 X-81.641 Y-19.931 E40.31306
G1 X-81.137 Y-20.436 E40.34375
G1 X-80.723 Y-20.804 E40.36758
G1 X-80.162 Y-21.244 E40.39830
G1 X-79.707 Y-21.560 E40.42209
G1 X-79.097 Y-21.929 E40.45281
G1 X-78.608 Y-22.187 E40.47661
G1 X-77.957 Y-22.481 E40.50735
G1 X-77.440 Y-22.678 E40.53113
G1 X-76.758 Y-22.892 E40.56191
G1 X-76.223 Y-23.025 E40.58564
G1 X-75.202 Y-23.203 E40.63024
G1 X-3.635 Y-31.333 E43.73015
G1 F9000.000 E37.73015
G92 E0
G1 X-74.415 Y11.500 F7800.000
G1 E6.00000 F9000.000
G1 X-73.962 Y11.473 E6.01950 F720.000
G1 X-73.559 Y11.497 E6.03689
G1 X-73.064 Y11.582 E6.05848 F720.000
G1 X-72.632 Y11.716 E6.07798
G1 X-72.219 Y11.902 E6.09747
G1 X-71.831 Y12.137 E6.11697
G1 X-71.475 Y12.416 E6.13646
G1 X-71.154 Y12.736 E6.15596
G1 X-70.875 Y13.093 E6.17546
G1 X-70.641 Y13.481 E6.19496
G1 X-70.455 Y13.894 E6.21445
G1 X-70.320 Y14.326 E6.23395
G1 X-70.238 Y14.772 E6.25345
G1 X-70.211 Y15.224 E6.27294
G1 X-70.238 Y15.676 E6.29243
G1 X-70.320 Y16.122 E6.31193
G1 X-70.455 Y16.554 E6.33143
G1 X-70.641 Y16.967 E6.35092
G1 X-70.875 Y17.355 E6.37042
G1 X-71.154 Y17.711 E6.38992
G1 X-71.475 Y18.032 E6.40942
G1 X-71.831 Y18.311 E6.42891
G1 X-72.219 Y18.545 E6.44840
G1 X-72.632 Y18.731 E6.46790
G1 X-73.065 Y18.866 E6.48741
G1 X-73.510 Y18.948 E6.50690
G1 X-73.962 Y18.975 E6.52639
G1 X-74.415 Y18.948 E6.54590
G1 X-74.860 Y18.866 E6.56538
G1 X-75.292 Y18.732 E6.58488
G1 X-75.706 Y18.546 E6.60438
G1 X-76.052 Y18.336 E6.62178
G1 X-76.450 Y18.032 E6.64337
G1 X-76.770 Y17.712 E6.66285
G1 X-77.050 Y17.355 E6.68235
G1 X-77.284 Y16.967 E6.70185
G1 X-77.470 Y16.554 E6.72135
G1 X-77.605 Y16.122 E6.74085
G1 X-77.686 Y15.676 E6.76034
G1 X-77.714 Y15.224 E6.77984
G1 X-77.686 Y14.772 E6.79933
G1 X-77.605 Y14.326 E6.81882
G1 X-77.470 Y13.894 E6.83833
G1 X-77.284 Y13.481 E6.85782
G1 X-77.050 Y13.093 E6.87732
G1 X-76.770 Y12.736 E6.89681
G1 X-76.450 Y12.416 E6.91631
G1 X-76.093 Y12.137 E6.93581
G1 X-75.706 Y11.902 E6.95530
G1 X-75.292 Y11.716 E6.97480
G1 X-74.860 Y11.582 E6.99430
G1 X-74.488 Y11.513 E7.01056
G1 X-74.354 Y11.997 F7800.000
G1 X-73.981 Y11.975 E7.02665 F504.000
G1 X-73.570 Y11.997 E7.04434 F504.000
G1 X-73.184 Y12.068 E7.06124
G1 X-72.810 Y12.185 E7.07813
G1 X-72.452 Y12.346 E7.09502
G1 X-72.132 Y12.539 E7.11111
G1 X-71.807 Y12.791 E7.12880
G1 X-71.529 Y13.068 E7.14570
G1 X-71.299 Y13.363 E7.16178
G1 X-71.084 Y13.713 E7.17948
G1 X-70.923 Y14.071 E7.19637
G1 X-70.806 Y14.446 E7.21326
G1 X-70.735 Y14.832 E7.23016
G1 X-70.712 Y15.224 E7.24705
G1 X-70.735 Y15.616 E7.26394
G1 X-70.806 Y16.002 E7.28083
G1 X-70.923 Y16.376 E7.29773
G1 X-71.084 Y16.734 E7.31462
G1 X-71.287 Y17.070 E7.33151
G1 X-71.529 Y17.379 E7.34841
G1 X-71.807 Y17.657 E7.36530
G1 X-72.116 Y17.899 E7.38219
G1 X-72.452 Y18.102 E7.39908
G1 X-72.810 Y18.263 E7.41598
G1 X-73.167 Y18.374 E7.43207
G1 X-73.570 Y18.451 E7.44976
G1 X-73.962 Y18.474 E7.46665
G1 X-74.354 Y18.451 E7.48355
G1 X-74.740 Y18.380 E7.50044
G1 X-75.115 Y18.263 E7.51733
G1 X-75.473 Y18.102 E7.53423
G1 X-75.809 Y17.899 E7.55112
G1 X-76.103 Y17.668 E7.56721
G1 X-76.395 Y17.379 E7.58490
G1 X-76.637 Y17.070 E7.60179
G1 X-76.840 Y16.734 E7.61869
G1 X-77.001 Y16.376 E7.63558
G1 X-77.118 Y16.002 E7.65247
G1 X-77.189 Y15.616 E7.66937
G1 X-77.213 Y15.224 E7.68626
G1 X-77.189 Y14.832 E7.70315
G1 X-77.118 Y14.446 E7.72004
G1 X-77.001 Y14.071 E7.73694
G1 X-76.840 Y13.713 E7.75383
G1 X-76.637 Y13.377 E7.77072
G1 X-76.395 Y13.068 E7.78762
G1 X-76.118 Y12.791 E7.80451
G1 X-75.809 Y12.549 E7.82140
G1 X-75.473 Y12.346 E7.83830
G1 X-75.115 Y12.185 E7.85519
G1 X-74.740 Y12.068 E7.87208
G1 X-74.428 Y12.011 E7.88575
G1 X-73.777 Y11.618 F7800.000
G1 X24.156 Y11.974 F7800.000
G1 X24.156 Y18.474 E8.16549 F720.000
G1 X-68.693 Y18.474 E12.16157
G1 X-69.001 Y18.492 E12.17485
G1 X-69.327 Y18.552 E12.18911
G1 X-69.644 Y18.650 E12.20336
G1 X-69.946 Y18.786 E12.21762
G1 X-70.230 Y18.957 E12.23188
G1 X-70.990 Y19.550 E12.27339
G1 X-71.532 Y19.876 E12.30063
G1 X-72.110 Y20.135 E12.32788
G1 X-72.715 Y20.322 E12.35513
G1 X-73.338 Y20.435 E12.38239
G1 X-73.970 Y20.473 E12.40964
G1 X-74.602 Y20.433 E12.43689
G1 X-75.225 Y20.318 E12.46414
G1 X-75.829 Y20.129 E12.49139
G1 X-76.406 Y19.869 E12.51864
G1 X-76.948 Y19.541 E12.54589
G1 X-77.446 Y19.150 E12.57315
G1 X-77.893 Y18.702 E12.60040
G1 X-78.284 Y18.203 E12.62765
G1 X-78.611 Y17.661 E12.65490
G1 X-78.870 Y17.083 E12.68215
G1 X-79.059 Y16.479 E12.70940
G1 X-79.173 Y15.856 E12.73665
G1 X-79.211 Y15.224 E12.76390
G1 X-79.173 Y14.592 E12.79116
G1 X-79.059 Y13.969 E12.81841
G1 X-78.870 Y13.364 E12.84566
G1 X-78.611 Y12.787 E12.87291
G1 X-78.284 Y12.245 E12.90016
G1 X-77.893 Y11.746 E12.92741
G1 X-77.446 Y11.298 E12.95466
G1 X-76.948 Y10.907 E12.98191
G1 X-76.406 Y10.579 E13.00917
G1 X-75.829 Y10.319 E13.03642
G1 X-75.225 Y10.129 E13.06367
G1 X-74.602 Y10.014 E13.09092
G1 X-73.970 Y9.975 E13.11817
G1 X-73.338 Y10.012 E13.14542
G1 X-72.715 Y10.126 E13.17267
G1 X-72.110 Y10.313 E13.19993
G1 X-71.532 Y10.572 E13.22718
G1 X-70.990 Y10.898 E13.25442
G1 X-70.229 Y11.491 E13.29593
G1 X-69.946 Y11.662 E13.31019
G1 X-69.643 Y11.798 E13.32444
G1 X-69.327 Y11.896 E13.33870
G1 X-69.001 Y11.955 E13.35295
G1 X-68.693 Y11.974 E13.36623
G1 X24.081 Y11.974 E17.35909
G1 X24.656 Y11.474 F7800.000
G1 X24.656 Y18.974 E17.68187 F504.000
G1 X-68.678 Y18.974 E21.69882
G1 X-68.941 Y18.990 E21.71016
G1 X-69.208 Y19.038 E21.72181
G1 X-69.466 Y19.119 E21.73348
G1 X-69.714 Y19.230 E21.74513
G1 X-69.946 Y19.369 E21.75680
G1 X-70.706 Y19.963 E21.79831
G1 X-71.301 Y20.320 E21.82816
G1 X-71.934 Y20.604 E21.85801
G1 X-72.596 Y20.809 E21.88786
G1 X-73.279 Y20.933 E21.91772
G1 X-73.971 Y20.973 E21.94757
G1 X-74.663 Y20.931 E21.97742
G1 X-75.345 Y20.805 E22.00727
G1 X-76.007 Y20.597 E22.03712
G1 X-76.640 Y20.312 E22.06698
G1 X-77.233 Y19.953 E22.09683
G1 X-77.778 Y19.524 E22.12668
G1 X-78.269 Y19.033 E22.15653
G1 X-78.696 Y18.487 E22.18638
G1 X-79.054 Y17.893 E22.21623
G1 X-79.339 Y17.261 E22.24609
G1 X-79.545 Y16.599 E22.27594
G1 X-79.670 Y15.916 E22.30579
G1 X-79.712 Y15.224 E22.33564
G1 X-79.670 Y14.532 E22.36550
G1 X-79.545 Y13.849 E22.39535
G1 X-79.339 Y13.187 E22.42520
G1 X-79.054 Y12.554 E22.45505
G1 X-78.696 Y11.961 E22.48490
G1 X-78.269 Y11.414 E22.51476
G1 X-77.778 Y10.923 E22.54461
G1 X-77.233 Y10.495 E22.57446
G1 X-76.640 Y10.136 E22.60431
G1 X-76.007 Y9.850 E22.63416
G1 X-75.345 Y9.643 E22.66402
G1 X-74.663 Y9.517 E22.69387
G1 X-73.971 Y9.474 E22.72372
G1 X-73.279 Y9.515 E22.75357
G1 X-72.596 Y9.639 E22.78342
G1 X-71.934 Y9.844 E22.81328
G1 X-71.301 Y10.128 E22.84313
G1 X-70.706 Y10.485 E22.87298
G1 X-69.946 Y11.078 E22.91449
G1 X-69.714 Y11.218 E22.92615
G1 X-69.466 Y11.329 E22.93781
G1 X-69.208 Y11.409 E22.94947
G1 X-68.941 Y11.458 E22.96113
G1 X-68.678 Y11.474 E22.97247
G1 X24.581 Y11.474 E26.98619
G1 X24.406 Y11.907 F7800.000
G1 X23.666 Y12.425 F7800.000
G1 X23.706 Y12.465 E26.99012 F900.000
G1 X23.706 Y13.617 E27.07017
G1 X22.513 Y12.425 E27.18732
G1 X21.361 Y12.425 E27.26738
G1 X23.706 Y14.769 E27.49774
G1 X23.706 Y15.922 E27.57779
G1 X20.208 Y12.425 E27.92137
G1 X19.056 Y12.425 E28.00143
G1 X23.706 Y17.074 E28.45822
G1 X23.502 Y18.023 E28.52563
G1 X17.904 Y12.425 E29.07564
G1 X16.751 Y12.425 E29.15569
G1 X22.350 Y18.023 E29.70570
G1 X21.197 Y18.023 E29.78575
G1 X15.599 Y12.425 E30.33576
G1 X14.447 Y12.425 E30.41581
G1 X20.045 Y18.023 E30.96582
G1 X18.892 Y18.023 E31.04588
G1 X13.294 Y12.425 E31.59588
G1 X12.142 Y12.425 E31.67594
G1 X17.740 Y18.023 E32.22594
G1 X16.588 Y18.023 E32.30600
G1 X10.989 Y12.425 E32.85600
G1 X9.837 Y12.425 E32.93606
G1 X15.435 Y18.023 E33.48606
G1 X14.283 Y18.023 E33.56612
G1 X8.685 Y12.425 E34.11613
G1 X7.532 Y12.425 E34.19618
G1 X13.131 Y18.023 E34.74619
G1 X11.978 Y18.023 E34.82624
G1 X6.380 Y12.425 E35.37625
G1 X5.228 Y12.425 E35.45630
G1 X10.826 Y18.023 E36.00631
G1 X9.674 Y18.023 E36.08636
G1 X4.075 Y12.425 E36.63637
G1 X2.923 Y12.425 E36.71643
G1 X8.521 Y18.023 E37.26643
G1 X7.369 Y18.023 E37.34649
G1 X1.771 Y12.425 E37.89649
G1 X0.618 Y12.425 E37.97655
G1 X6.216 Y18.023 E38.52655
G1 X5.064 Y18.023 E38.60661
G1 X-0.534 Y12.425 E39.15662
G1 X-1.687 Y12.425 E39.23667
G1 X3.912 Y18.023 E39.78668
G1 X2.759 Y18.023 E39.86673
G1 X-2.839 Y12.425 E40.41674
G1 X-3.991 Y12.425 E40.49679
G1 X1.607 Y18.023 E41.04680
G1 X0.455 Y18.023 E41.12685
G1 X-5.144 Y12.425 E41.67686
G1 X-6.296 Y12.425 E41.75692
G1 X-0.698 Y18.023 E42.30692
G1 X-1.850 Y18.023 E42.38698
G1 X-7.448 Y12.425 E42.93698
G1 X-8.601 Y12.425 E43.01704
G1 X-3.003 Y18.023 E43.56704
G1 X-4.155 Y18.023 E43.64710
G1 X-9.753 Y12.425 E44.19710
G1 X-10.906 Y12.425 E44.27716
G1 X-5.307 Y18.023 E44.82717
G1 X-6.460 Y18.023 E44.90722
G1 X-12.058 Y12.425 E45.45723
G1 X-13.210 Y12.425 E45.53728
G1 X-7.612 Y18.023 E46.08729
G1 X-8.764 Y18.023 E46.16734
G1 X-14.363 Y12.425 E46.71735
G1 X-15.515 Y12.425 E46.79741
G1 X-9.917 Y18.023 E47.34741
G1 X-11.069 Y18.023 E47.42747
G1 X-16.667 Y12.425 E47.97747
G1 X-17.820 Y12.425 E48.05753
G1 X-12.222 Y18.023 E48.60753
G1 X-13.374 Y18.023 E48.68759
G1 X-18.972 Y12.425 E49.23759
G1 X-20.125 Y12.425 E49.31765
G1 X-14.526 Y18.023 E49.86766
G1 X-15.679 Y18.023 E49.94771
G1 X-21.277 Y12.425 E50.49772
G1 X-22.429 Y12.425 E50.57777
G1 X-16.831 Y18.023 E51.12778
G1 X-17.983 Y18.023 E51.20783
G1 X-23.582 Y12.425 E51.75784
G1 X-24.734 Y12.425 E51.83789
G1 X-19.136 Y18.023 E52.38790
G1 X-20.288 Y18.023 E52.46796
G1 X-25.886 Y12.425 E53.01796
G1 X-27.039 Y12.425 E53.09802
G1 X-21.441 Y18.023 E53.64802
G1 X-22.593 Y18.023 E53.72808
G1 X-28.191 Y12.425 E54.27808
G1 X-29.344 Y12.425 E54.35814
G1 X-23.745 Y18.023 E54.90815
G1 X-24.898 Y18.023 E54.98820
G1 X-30.496 Y12.425 E55.53821
G1 X-31.648 Y12.425 E55.61826
G1 X-26.050 Y18.023 E56.16827
G1 X-27.202 Y18.023 E56.24832
G1 X-32.801 Y12.425 E56.79833
G1 X-33.953 Y12.425 E56.87838
G1 X-28.355 Y18.023 E57.42839
G1 X-29.507 Y18.023 E57.50845
G1 X-35.105 Y12.425 E58.05845
G1 X-36.258 Y12.425 E58.13851
G1 X-30.659 Y18.023 E58.68851
G1 X-31.812 Y18.023 E58.76857
G1 X-37.410 Y12.425 E59.31857
G1 X-38.562 Y12.425 E59.39863
G1 X-32.964 Y18.023 E59.94863
G1 X-34.117 Y18.023 E60.02869
G1 X-39.715 Y12.425 E60.57870
G1 X-40.867 Y12.425 E60.65875
G1 X-35.269 Y18.023 E61.20876
G1 X-36.421 Y18.023 E61.28881
G1 X-42.020 Y12.425 E61.83882
G1 X-43.172 Y12.425 E61.91887
G1 X-37.574 Y18.023 E62.46888
G1 X-38.726 Y18.023 E62.54894
G1 X-44.324 Y12.425 E63.09894
G1 X-45.477 Y12.425 E63.17900
G1 X-39.878 Y18.023 E63.72900
G1 X-41.031 Y18.023 E63.80906
G1 X-46.629 Y12.425 E64.35906
G1 X-47.781 Y12.425 E64.43912
G1 X-42.183 Y18.023 E64.98912
G1 X-43.336 Y18.023 E65.06918
